X:26
T:Jr. Productions
R:reel
C:Jerry Holland
O:Cape Breton Island
S:http://www.cranfordpub.com
Z:psc, (re-formatted,updated 9/19/04)
N:http://www.jerryholland.com
H:                                                        copyrights Fiddlesticksmusic, SOCAN
L:1/8
Q:333
M:C|
K:A
f|eAce feef|feef eA c2|eAce feef|eAce cBBf|
eAce feef|eAce feec|dffd ceec|feAB cBB:|
g|:aeef fece|feef eA c2|aeef eAce|feef ec B2|
aeef fece|aeef ed c2|defe faec|dfce BcdB:|
|:A/A/A BA cBcA|ceaf eA c2|A/A/A BA cBcA|fedc BcdB|
A/A/A BA cBcA|agae c2 BA|defd caec|dfce BcdB:|
|:fece aece|agae fe c2|fece aece|feef ec B2|fece aece|
feef efga|[1defd cdec|dfce BcdB:|[2defd caec|dBcA BEB|]
